packages/core/src/svgs/tokens/mono/BCDT.svg

<svg width="24" height="24" viewBox="0 0 24 24" fill="none" xmlns="http://www.w3.org/2000/svg">
<path d="M4.63159 6.18942V14.505L8.84206 16.9577V21.8208C8.84206 21.9576 9.05785 22.0419 9.1789 21.9786L11.9999 20.4155L14.7789 21.9735C14.8998 22.0419 15.0525 21.9576 15.0525 21.8155V16.9577L19.3682 14.505V6.18942L11.9999 2L4.63159 6.18942ZM7.68944 7.62624L5.36316 6.32625L11.9999 2.47894L18.5787 6.26836L16.2788 7.5894C16.2788 7.5894 13.4315 5.98942 11.9999 5.16838L7.68944 7.62624ZM5.1579 14.2577V6.81046L7.26314 7.98939V12.9367C7.26314 12.9367 10.3052 14.5262 11.7367 15.3208V19.9892L9.36836 21.2945V16.684L5.1579 14.2524V14.2577ZM18.8419 6.71572V14.2524L14.5841 16.684V21.2945L12.2368 19.9944V15.3261C13.6631 14.5262 16.7366 12.942 16.7366 12.942V7.91571L18.8419 6.71572ZM7.78945 12.663V8.29465L11.7367 10.4893V14.8209L7.78945 12.663ZM16.2104 8.23676V12.6577L12.2631 14.8209V10.4893L16.2104 8.23676ZM11.9999 10.0525L8.15786 7.89466L11.9736 5.71048L15.7893 7.8736L11.9999 10.0525Z" fill="white"/>
</svg>

<svg xmlns="http://www.w3.org/2000/svg" width="24" height="24" fill="none" viewBox="0 0 24 24">
    <path fill="#fff" d="M4.632 6.19v8.315l4.21 2.453v4.863c0 .137.216.22.337.158l2.82-1.563 2.78 1.558a.183.183 0 0 0 .274-.159v-4.857l4.315-2.453V6.189L12 2zm3.057 1.436-2.326-1.3L12 2.48l6.579 3.79-2.3 1.32s-2.847-1.6-4.28-2.42zm-2.531 6.632V6.81l2.105 1.18v4.947s3.042 1.59 4.474 2.384v4.668l-2.369 1.305v-4.61l-4.21-2.432zm13.684-7.542v7.536l-4.258 2.432v4.61l-2.347-1.3v-4.668c1.426-.8 4.5-2.384 4.5-2.384V7.916zM7.789 12.663V8.295l3.948 2.194v4.332zm8.421-4.426v4.42l-3.947 2.164v-4.332zM12 10.053 8.158 7.895l3.816-2.185 3.815 2.164z"/>
</svg>
